X: 126
T: The Fermoy Lasses
M: 4/4
L: 1/8
R: reel
K:Emin
"Em"GE ~E2 BE ~E2|GE ~E2 BcBA|GE ~E2 BE ~E2|"D"AFDF AcBA|
"Em"GE ~E2 BE ~E2|GE ~E2 BcBA|"G"~G2 GF GBdB|"D"AFDF AcBA:||
|: "G"~G2 BG dGBG|~G2 Bd efg2|~G2 BG dGBG|"D"AFDF AcBA|
"G"~G2 BG dGBG|~G2 Bd efg2|gage dedB|"D"AFDF AcBA:||


